X:1
T:Title
%%score { 1 | 2 }
L:1/8
Q:1/4=100
M:4/4
K:Ab
V:1 treble nm="Grand Piano"
V:2 bass 
V:1
 [Ec]2 [Ec]2 [=Ec]3 [EG] | [FB][FA][EG][DF] [DF]2 [CE]2 | d2 d2 d3 [EG] | [EA][EA]BB c4 | %4
w: Ira~D.~Sankey * * *||||
 [Ec]2 [Ec]2 [=Ec]3 [EG] | [FB][FA][EG][DF] [DF]2 [CE]2 | [DF][EG][EA][FB] cA B>[CA] | [CA]6 z2 | %8
w: ||||
 [Ee]2 [Ee]2 [Ge]3 [EG] | [EA][EA]BB c2 c2 | d2 d2 d3 B | cc[A=d][Ad] [Ge]4 | %12
w: ||||
 [Ec]2 [Ec]2 [=Ec]3 [EG] | [FB][FA][EG][DF] [DF]2 [CE]2 | [DF][EG][EA][Fd] cA B>[CA] | %15
w: |||
[M:3/4] [CA]6 |] %16
w: |
V:2
 [A,,A,]2 [A,,A,]2 [C,G,]3 [C,B,] | [D,A,][D,A,][D,A,][D,A,] [A,,A,]2 [A,,A,]2 | %2
 [E,B,E]2 [E,B,E]2 [E,B,E]3 [D,B,] | [C,A,][C,A,][E,G,E][E,G,E] [A,E]4 | %4
 [A,,A,]2 [A,,A,]2 [C,G,]3 [C,B,] | [D,A,][D,A,][D,A,][D,A,] [A,,A,]2 [A,,A,]2 | %6
 [D,A,][D,B,][C,A,][D,A,] [E,A,E][E,A,C] [E,G,D]>[A,,A,] | [A,,A,]6 z2 | %8
 [A,C]2 [A,C]2 [E,B,]3 [D,B,] | [C,A,][C,A,][E,G,E][E,G,E] [A,E]2 [A,E]2 | %10
 [E,B,E]2 [E,B,E]2 [E,B,E]3 [E,G,E] | [A,E][A,E][F,B,][F,B,] [E,B,]4 | %12
 [A,,A,]2 [A,,A,]2 [C,G,]3 [C,B,] | [D,A,][D,A,][D,A,][D,A,] [A,,A,]2 [A,,A,]2 | %14
 [D,A,][D,B,][D,A,][D,A,] [E,A,E][E,A,C] [E,G,D]>[A,,A,] |[M:3/4] [A,,A,]6 |] %16

